src/topics/icons/freedcamp.svg

<svg height="233" preserveAspectRatio="xMidYMid" viewBox="0 0 256 233" width="256" xmlns="http://www.w3.org/2000/svg"><path d="m50.6810272 65.5917821c8.9988483 0 13.8777899-4.2992062 13.8777899-13.8817743 0-5.5672529-3.9993774-13.8777899-13.8777899-13.8777899-9.8385681 0-13.8777898 5.2395331-13.8777898 13.8777899 0 8.6392529 4.9187859 13.8817743 13.8777898 13.8817743" fill="#accd3e"/><path d="m86.8766381 37.8322179c-9.0436731 0-13.1486381 4.3998132-13.7801712 11.7700233h-.1384591c.0288871.4223502.0517976.8456965.0657432 1.2690428-.008965.2789106-.0258989.5518444-.0258989.8387238v.9911284c-.6066303 10.7759066-8.6731206 19.5605914-19.1013852 21.293821-1.0339611.2241245-2.2073774.4223502-3.3598755.4223502-.8715953 0-1.5609027-.1414475-2.3169494-.2858833-10.8834864-1.3407626-19.4261167-10.3246692-20.0556576-21.4243113v-.997105c0-.2888716-.0159377-.5637977-.0249027-.8447004.0139455-.4213541.036856-.8427082.0657432-1.2630662h-.1384591c-.6315331-7.3702101-4.7364981-11.7700233-13.7801712-11.7700233h-13.87778993v13.8777899c0 9.5825681 4.87894163 13.8817743 13.87778993 13.8817743h2.3986303c10.651393 1.2003113 19.0864436 9.7220233 20.1931206 20.4202335-.0448249.6026459-.0747081 1.2172451-.0747081 1.856747 0 8.6432374 2.6396887 13.8827704 13.8777898 13.8827704 8.9988483 0 13.8777899-4.3002023 13.8777899-13.8827704v-3.7891984c1.8418055-9.7778054 9.9132763-17.3611829 19.9181946-18.4877821h2.3996264c8.9580078 0 13.8777899-4.2992062 13.8777899-13.8817743v-13.8777899z" fill="#1f9ba0"/><path d="m205.338895 65.5917821c8.998848 0 13.878786-4.2992062 13.878786-13.8817743 0-5.5672529-4.000374-13.8777899-13.878786-13.8777899-9.878413 0-13.87779 5.2395331-13.87779 13.8777899 0 8.6392529 4.919782 13.8817743 13.87779 13.8817743" fill="#accd3e"/><path d="m241.53351 37.8322179c-9.042677 0-13.147642 4.3998132-13.779175 11.7700233h-.13846c.027892.420358.051798.8417121.065744 1.2630662-.008965.2809027-.025899.5558288-.025899.8447004v.997105c-.609619 10.7739144-8.675113 19.5546148-19.101385 21.2878444h-3.21544c-.872591 0-1.682428.0557821-2.46537.1354708-10.881494-1.3417587-19.422132-10.3246692-20.050677-21.4233152v-.997105c0-.2888716-.016934-.5637977-.025899-.8447004.014942-.4213541.037853-.8427082.065744-1.2630662h-.13846c-.631533-7.3702101-4.736498-11.7700233-13.779175-11.7700233h-13.878786v13.8777899c0 9.5825681 4.879938 13.8817743 13.878786 13.8817743h2.398631c10.650397 1.2003113 19.084451 9.7210272 20.192124 20.4192374-.044825.6016498-.074708 1.2172451-.074708 1.8577431 0 8.6432374 2.599844 13.8827704 13.87779 13.8827704 8.998848 0 13.878786-4.3002023 13.878786-13.8827704v-3.7891984c1.840809-9.7778054 9.91228-17.3611829 19.917198-18.4877821h2.398631c8.959004 0 13.878786-4.2992062 13.878786-13.8817743v-13.8777899z" fill="#1f9ba0"/><path d="m205.338895 140.52607c8.998848 0 13.878786-4.300202 13.878786-13.878786 0-5.571237-4.000374-13.881774-13.878786-13.881774-9.878413 0-13.87779 5.243517-13.87779 13.881774 0 8.643237 4.919782 13.878786 13.87779 13.878786" fill="#accd3e"/><path d="m241.53351 112.76551c-9.040685 0-13.146646 4.401805-13.779175 11.770023h-.13846c.027892.423346.051798.843704.065744 1.267051-.008965.280902-.025899.555828-.025899.8447v1.00109c-.609619 10.768933-8.674117 19.547642-19.100389 21.279875h-3.216436c-.872591 0-1.683424.055782-2.46537.136467-10.88249-1.342755-19.422132-10.321681-20.050677-21.416342v-1.00109c0-.288872-.016934-.563798-.025899-.8447.014942-.423347.037853-.843705.065744-1.267051h-.13846c-.632529-7.368218-4.737494-11.770023-13.779175-11.770023h-13.878786v13.881774c0 9.578584 4.879938 13.878786 13.878786 13.878786h2.398631c10.650397 1.199315 19.084451 9.724016 20.192124 20.42123-.044825.602646-.074708 1.218241-.074708 1.858739 0 8.639253 2.599844 13.878786 13.87779 13.878786 8.998848 0 13.878786-4.300202 13.878786-13.878786v-3.789199c1.840809-9.778801 9.91228-17.364171 19.917198-18.49077h2.398631c8.959004 0 13.878786-4.300202 13.878786-13.878786v-13.881774z" fill="#1f9ba0"/><path d="m51.4809027 140.52607c8.9988483 0 13.878786-4.300202 13.878786-13.878786 0-5.571237-4.0003735-13.881774-13.878786-13.881774-9.8784124 0-13.8777899 5.243517-13.8777899 13.881774 0 8.643237 4.8799378 13.878786 13.8777899 13.878786" fill="#accd3e"/><path d="m87.6755175 112.76551c-9.0416809 0-13.1795175 4.401805-13.8180233 11.770023h-.0996109c.0159377.23309.0298832.465183.0428327.697276-.0258989.462195-.0428327.931362-.0428327 1.414475v1.526039c-.8387238 10.527875-8.8056031 19.050584-19.0605448 20.754926h-3.2164358c-.8725914 0-1.6834241.055782-2.4653696.136467-10.8824903-1.342755-19.4231284-10.322677-20.0506771-21.417339v-1.000093c0-.288872-.0169338-.562802-.0258988-.843704.0139455-.423347.036856-.844701.0657432-1.268047h-.1384592c-.6325291-7.368218-4.7384902-11.770023-13.7801712-11.770023h-13.87778984v13.881774c0 9.578584 4.87894163 13.878786 13.87778984 13.878786h2.3996265c10.6494008 1.199315 19.0834553 9.723019 20.1911284 20.419237-.0448249.603642-.0737121 1.219238-.0737121 1.860732 0 8.639253 2.5998444 13.878786 13.8777899 13.878786 8.9988483 0 13.878786-4.300202 13.878786-13.878786v-3.789199c1.8408094-9.778801 9.9122802-17.364171 19.9171985-18.49077h2.3986303c8.9590039 0 13.8777895-4.300202 13.8777895-13.878786v-13.881774z" fill="#1f9ba0"/><path d="m127.07063 102.694848c8.997852 0 13.87779-4.3031904 13.87779-13.8817741 0-5.5712373-3.999377-13.8817743-13.87779-13.8817743-9.878412 0-13.878786 5.2425214-13.878786 13.8817743 0 8.6382568 4.879938 13.8817741 13.878786 13.8817741" fill="#accd3e"/><path d="m163.225401 74.9312996c-9.041681 0-13.146646 4.4018055-13.780171 11.7700234h-.097619c.020918.3117821.029883.6225681.034864.933354-.01793.3874864-.034864.7759689-.034864 1.1783969v.9990973c-.608623 10.7669418-8.633276 19.5396728-19.068514 21.2818678h-3.208467c-.88056 0-1.698365.055782-2.486288.138459-10.901416-1.347735-19.404202-10.324669-20.030754-21.4203268v-.9990973c0-.2888716-.016934-.5637976-.025899-.8456965.014941-.4223502.037852-.8427081.065743-1.2660544h-.138459c-.632529-7.3682179-4.7374944-11.7700234-13.7791753-11.7700234h-13.878786v13.8817743c0 9.5785837 4.8799377 13.8817741 13.878786 13.8817741h2.3717354c10.6772919 1.199315 19.1113459 9.722024 20.2190199 20.420234-.044825.602646-.074709 1.219237-.074709 1.860731 0 8.635269 2.599845 13.873806 13.878786 13.873806 8.997852 0 13.87779-4.295222 13.87779-13.873806v-3.799159c1.838817-9.775814 9.881401-17.356203 19.905245-18.481806h2.371736c8.998848 0 13.87779-4.3031904 13.87779-13.8817741v-13.8817743z" fill="#1f9ba0"/><path d="m127.07063 179.436078c8.997852 0 13.87779-4.303191 13.87779-13.885759 0-5.563268-3.999377-13.878786-13.87779-13.878786-9.878412 0-13.878786 5.243518-13.878786 13.878786 0 8.642241 4.879938 13.885759 13.878786 13.885759" fill="#accd3e"/><path d="m127.07063 28.1729494c8.997852 0 13.87779-4.3071751 13.87779-13.8857587 0-5.57123739-3.999377-13.88177436-13.87779-13.88177436-9.878412 0-13.878786 5.24351751-13.878786 13.88177436 0 8.6392529 4.879938 13.8857587 13.878786 13.8857587" fill="#accd3e"/><g fill="#1f9ba0"><path d="m163.225401.40541634c-9.043673 0-13.148638 4.40379767-13.780171 11.77400776h-.097619c.020918.310786.029883.6195798.034864.9293697-.01793.3884825-.034864.7759688-.034864 1.1783969v1.0000933c-.608623 10.7669417-8.633276 19.5386771-19.068514 21.2808716h-3.208467c-.88056 0-1.698365.0557821-2.486288.1384592-10.901416-1.3477354-19.404202-10.3246693-20.030754-21.4203269v-.9990972c0-.2888716-.016934-.5637977-.025899-.8447004.014941-.4223502.037852-.8417121.065743-1.2630662h-.138459c-.631533-7.37021009-4.7364983-11.77400776-13.7791753-11.77400776h-13.878786v13.88177436c0 9.5785836 4.8799377 13.8857587 13.878786 13.8857587h2.4016186c10.6633467 1.2122646 19.0824587 9.728 20.1891367 20.416249-.044825.6036421-.074709 1.2192374-.074709 1.8607316 0 8.6352684 2.599845 13.878786 13.878786 13.878786 8.997852 0 13.87779-4.3002024 13.87779-13.878786v-3.7991596c1.836825-9.7658521 9.865463-17.3402646 19.875362-18.477821h2.401619c8.998848 0 13.87779-4.3071751 13.87779-13.8857587v-13.88177436z"/><path d="m163.225401 151.671533c-9.044669 0-13.149634 4.404794-13.780171 11.775004h-.097619c.019922.306802.029883.615595.034864.926381-.01793.387487-.034864.774973-.034864 1.177401v1.003082c-.672374 11.887564-10.382444 21.346615-22.39751 21.59365-12.01407-.247035-21.725136-9.706086-22.396513-21.594646v-1.002086c0-.288872-.016934-.562801-.025899-.842708.014941-.42235.037852-.843704.065743-1.261074h-.137463c-.630537-7.37021-4.7355021-11.775004-13.7801713-11.775004h-13.878786v13.878786c0 9.582568 4.8799377 13.885759 13.878786 13.885759h2.3737276c10.3595327 1.164451 18.2666457 9.257836 19.7598137 19.505805.124513 1.026989-.016934 1.610708-.016934 2.4833v21.473121c0 5.150879 4.199595 9.374381 9.358443 9.374381h8.758786c5.119004 0 9.358444-4.223502 9.358444-9.374381v-21.025868c.149416-11.625588 9.241899-21.161339 20.583595-22.436358h2.373728c8.998848 0 13.87779-4.303191 13.87779-13.885759v-13.878786z"/></g></svg>

<?xml version="1.0" encoding="UTF-8" standalone="no"?>
<svg width="256px" height="233px" viewBox="0 0 256 233" version="1.1" xmlns="http://www.w3.org/2000/svg" xmlns:xlink="http://www.w3.org/1999/xlink" preserveAspectRatio="xMidYMid">
	<g>
		<path d="M50.6810272,65.5917821 C59.6798755,65.5917821 64.5588171,61.2925759 64.5588171,51.7100078 C64.5588171,46.1427549 60.5594397,37.8322179 50.6810272,37.8322179 C40.8424591,37.8322179 36.8032374,43.071751 36.8032374,51.7100078 C36.8032374,60.3492607 41.7220233,65.5917821 50.6810272,65.5917821" fill="#ACCD3E"></path>
		<path d="M86.8766381,37.8322179 C77.832965,37.8322179 73.728,42.2320311 73.0964669,49.6022412 L72.9580078,49.6022412 C72.9868949,50.0245914 73.0098054,50.4479377 73.023751,50.871284 C73.014786,51.1501946 72.9978521,51.4231284 72.9978521,51.7100078 L72.9978521,52.7011362 C72.3912218,63.4770428 64.3247315,72.2617276 53.8964669,73.9949572 C52.8625058,74.2190817 51.6890895,74.4173074 50.5365914,74.4173074 C49.6649961,74.4173074 48.9756887,74.2758599 48.219642,74.1314241 C37.3361556,72.7906615 28.7935253,63.8067549 28.1639844,52.7071128 L28.1639844,51.7100078 C28.1639844,51.4211362 28.1480467,51.1462101 28.1390817,50.8653074 C28.1530272,50.4439533 28.1759377,50.0225992 28.2048249,49.6022412 L28.0663658,49.6022412 C27.4348327,42.2320311 23.3298677,37.8322179 14.2861946,37.8322179 L0.408404669,37.8322179 L0.408404669,51.7100078 C0.408404669,61.2925759 5.2873463,65.5917821 14.2861946,65.5917821 L16.6848249,65.5917821 C27.3362179,66.7920934 35.7712685,75.3138054 36.8779455,86.0120156 C36.8331206,86.6146615 36.8032374,87.2292607 36.8032374,87.8687626 C36.8032374,96.512 39.4429261,101.751533 50.6810272,101.751533 C59.6798755,101.751533 64.5588171,97.4513307 64.5588171,87.8687626 L64.5588171,84.0795642 C66.4006226,74.3017588 74.4720934,66.7183813 84.4770117,65.5917821 L86.8766381,65.5917821 C95.8346459,65.5917821 100.754428,61.2925759 100.754428,51.7100078 L100.754428,37.8322179 L86.8766381,37.8322179" fill="#1F9BA0"></path>
		<path d="M205.338895,65.5917821 C214.337743,65.5917821 219.217681,61.2925759 219.217681,51.7100078 C219.217681,46.1427549 215.217307,37.8322179 205.338895,37.8322179 C195.460482,37.8322179 191.461105,43.071751 191.461105,51.7100078 C191.461105,60.3492607 196.380887,65.5917821 205.338895,65.5917821" fill="#ACCD3E"></path>
		<path d="M241.53351,37.8322179 C232.490833,37.8322179 228.385868,42.2320311 227.754335,49.6022412 L227.615875,49.6022412 C227.643767,50.0225992 227.667673,50.4439533 227.681619,50.8653074 C227.672654,51.1462101 227.65572,51.4211362 227.65572,51.7100078 L227.65572,52.7071128 C227.046101,63.4810272 218.980607,72.2617276 208.554335,73.9949572 L205.338895,73.9949572 C204.466304,73.9949572 203.656467,74.0507393 202.873525,74.130428 C191.992031,72.7886693 183.451393,63.8057588 182.822848,52.7071128 L182.822848,51.7100078 C182.822848,51.4211362 182.805914,51.1462101 182.796949,50.8653074 C182.811891,50.4439533 182.834802,50.0225992 182.862693,49.6022412 L182.724233,49.6022412 C182.0927,42.2320311 177.987735,37.8322179 168.945058,37.8322179 L155.066272,37.8322179 L155.066272,51.7100078 C155.066272,61.2925759 159.94621,65.5917821 168.945058,65.5917821 L171.343689,65.5917821 C181.994086,66.7920934 190.42814,75.3128093 191.535813,86.0110195 C191.490988,86.6126693 191.461105,87.2282646 191.461105,87.8687626 C191.461105,96.512 194.060949,101.751533 205.338895,101.751533 C214.337743,101.751533 219.217681,97.4513307 219.217681,87.8687626 L219.217681,84.0795642 C221.05849,74.3017588 229.129961,66.7183813 239.134879,65.5917821 L241.53351,65.5917821 C250.492514,65.5917821 255.412296,61.2925759 255.412296,51.7100078 L255.412296,37.8322179 L241.53351,37.8322179" fill="#1F9BA0"></path>
		<path d="M205.338895,140.52607 C214.337743,140.52607 219.217681,136.225868 219.217681,126.647284 C219.217681,121.076047 215.217307,112.76551 205.338895,112.76551 C195.460482,112.76551 191.461105,118.009027 191.461105,126.647284 C191.461105,135.290521 196.380887,140.52607 205.338895,140.52607" fill="#ACCD3E"></path>
		<path d="M241.53351,112.76551 C232.492825,112.76551 228.386864,117.167315 227.754335,124.535533 L227.615875,124.535533 C227.643767,124.958879 227.667673,125.379237 227.681619,125.802584 C227.672654,126.083486 227.65572,126.358412 227.65572,126.647284 L227.65572,127.648374 C227.046101,138.417307 218.981603,147.196016 208.555331,148.928249 L205.338895,148.928249 C204.466304,148.928249 203.655471,148.984031 202.873525,149.064716 C191.991035,147.721961 183.451393,138.743035 182.822848,127.648374 L182.822848,126.647284 C182.822848,126.358412 182.805914,126.083486 182.796949,125.802584 C182.811891,125.379237 182.834802,124.958879 182.862693,124.535533 L182.724233,124.535533 C182.091704,117.167315 177.986739,112.76551 168.945058,112.76551 L155.066272,112.76551 L155.066272,126.647284 C155.066272,136.225868 159.94621,140.52607 168.945058,140.52607 L171.343689,140.52607 C181.994086,141.725385 190.42814,150.250086 191.535813,160.9473 C191.490988,161.549946 191.461105,162.165541 191.461105,162.806039 C191.461105,171.445292 194.060949,176.684825 205.338895,176.684825 C214.337743,176.684825 219.217681,172.384623 219.217681,162.806039 L219.217681,159.01684 C221.05849,149.238039 229.129961,141.652669 239.134879,140.52607 L241.53351,140.52607 C250.492514,140.52607 255.412296,136.225868 255.412296,126.647284 L255.412296,112.76551 L241.53351,112.76551" fill="#1F9BA0"></path>
		<path d="M51.4809027,140.52607 C60.479751,140.52607 65.3596887,136.225868 65.3596887,126.647284 C65.3596887,121.076047 61.3593152,112.76551 51.4809027,112.76551 C41.6024903,112.76551 37.6031128,118.009027 37.6031128,126.647284 C37.6031128,135.290521 42.4830506,140.52607 51.4809027,140.52607" fill="#ACCD3E"></path>
		<path d="M87.6755175,112.76551 C78.6338366,112.76551 74.496,117.167315 73.8574942,124.535533 L73.7578833,124.535533 C73.773821,124.768623 73.7877665,125.000716 73.800716,125.232809 C73.7748171,125.695004 73.7578833,126.164171 73.7578833,126.647284 L73.7578833,128.173323 C72.9191595,138.701198 64.9522802,147.223907 54.6973385,148.928249 L51.4809027,148.928249 C50.6083113,148.928249 49.7974786,148.984031 49.0155331,149.064716 C38.1330428,147.721961 29.5924047,138.742039 28.964856,127.647377 L28.964856,126.647284 C28.964856,126.358412 28.9479222,126.084482 28.9389572,125.80358 C28.9529027,125.380233 28.9758132,124.958879 29.0047004,124.535533 L28.8662412,124.535533 C28.2337121,117.167315 24.127751,112.76551 15.08607,112.76551 L1.20828016,112.76551 L1.20828016,126.647284 C1.20828016,136.225868 6.08722179,140.52607 15.08607,140.52607 L17.4856965,140.52607 C28.1350973,141.725385 36.5691518,150.249089 37.6768249,160.945307 C37.632,161.548949 37.6031128,162.164545 37.6031128,162.806039 C37.6031128,171.445292 40.2029572,176.684825 51.4809027,176.684825 C60.479751,176.684825 65.3596887,172.384623 65.3596887,162.806039 L65.3596887,159.01684 C67.2004981,149.238039 75.2719689,141.652669 85.2768872,140.52607 L87.6755175,140.52607 C96.6345214,140.52607 101.553307,136.225868 101.553307,126.647284 L101.553307,112.76551 L87.6755175,112.76551" fill="#1F9BA0"></path>
		<path d="M127.07063,102.694848 C136.068482,102.694848 140.94842,98.3916576 140.94842,88.8130739 C140.94842,83.2418366 136.949043,74.9312996 127.07063,74.9312996 C117.192218,74.9312996 113.191844,80.173821 113.191844,88.8130739 C113.191844,97.4513307 118.071782,102.694848 127.07063,102.694848" fill="#ACCD3E"></path>
		<path d="M163.225401,74.9312996 C154.18372,74.9312996 150.078755,79.3331051 149.44523,86.701323 L149.347611,86.701323 C149.368529,87.0131051 149.377494,87.3238911 149.382475,87.634677 C149.364545,88.0221634 149.347611,88.4106459 149.347611,88.8130739 L149.347611,89.8121712 C148.738988,100.579113 140.714335,109.351844 130.279097,111.094039 L127.07063,111.094039 C126.19007,111.094039 125.372265,111.149821 124.584342,111.232498 C113.682926,109.884763 105.18014,100.907829 104.553588,89.8121712 L104.553588,88.8130739 C104.553588,88.5242023 104.536654,88.2492763 104.527689,87.9673774 C104.54263,87.5450272 104.565541,87.1246693 104.593432,86.701323 L104.454973,86.701323 C103.822444,79.3331051 99.7174786,74.9312996 90.6757977,74.9312996 L76.7970117,74.9312996 L76.7970117,88.8130739 C76.7970117,98.3916576 81.6769494,102.694848 90.6757977,102.694848 L93.0475331,102.694848 C103.724825,103.894163 112.158879,112.416872 113.266553,123.115082 C113.221728,123.717728 113.191844,124.334319 113.191844,124.975813 C113.191844,133.611082 115.791689,138.849619 127.07063,138.849619 C136.068482,138.849619 140.94842,134.554397 140.94842,124.975813 L140.94842,121.176654 C142.787237,111.40084 150.829821,103.820451 160.853665,102.694848 L163.225401,102.694848 C172.224249,102.694848 177.103191,98.3916576 177.103191,88.8130739 L177.103191,74.9312996 L163.225401,74.9312996" fill="#1F9BA0"></path>
		<path d="M127.07063,179.436078 C136.068482,179.436078 140.94842,175.132887 140.94842,165.550319 C140.94842,159.987051 136.949043,151.671533 127.07063,151.671533 C117.192218,151.671533 113.191844,156.915051 113.191844,165.550319 C113.191844,174.19256 118.071782,179.436078 127.07063,179.436078" fill="#ACCD3E"></path>
		<path d="M127.07063,28.1729494 C136.068482,28.1729494 140.94842,23.8657743 140.94842,14.2871907 C140.94842,8.71595331 136.949043,0.405416342 127.07063,0.405416342 C117.192218,0.405416342 113.191844,5.64893385 113.191844,14.2871907 C113.191844,22.9264436 118.071782,28.1729494 127.07063,28.1729494" fill="#ACCD3E"></path>
		<path d="M163.225401,0.405416342 C154.181728,0.405416342 150.076763,4.80921401 149.44523,12.1794241 L149.347611,12.1794241 C149.368529,12.4902101 149.377494,12.7990039 149.382475,13.1087938 C149.364545,13.4972763 149.347611,13.8847626 149.347611,14.2871907 L149.347611,15.287284 C148.738988,26.0542257 140.714335,34.8259611 130.279097,36.5681556 L127.07063,36.5681556 C126.19007,36.5681556 125.372265,36.6239377 124.584342,36.7066148 C113.682926,35.3588794 105.18014,26.3819455 104.553588,15.2862879 L104.553588,14.2871907 C104.553588,13.9983191 104.536654,13.723393 104.527689,13.4424903 C104.54263,13.0201401 104.565541,12.6007782 104.593432,12.1794241 L104.454973,12.1794241 C103.82344,4.80921401 99.7184747,0.405416342 90.6757977,0.405416342 L76.7970117,0.405416342 L76.7970117,14.2871907 C76.7970117,23.8657743 81.6769494,28.1729494 90.6757977,28.1729494 L93.0774163,28.1729494 C103.740763,29.385214 112.159875,37.9009494 113.266553,48.5891984 C113.221728,49.1928405 113.191844,49.8084358 113.191844,50.44993 C113.191844,59.0851984 115.791689,64.328716 127.07063,64.328716 C136.068482,64.328716 140.94842,60.0285136 140.94842,50.44993 L140.94842,46.6507704 C142.785245,36.8849183 150.813883,29.3105058 160.823782,28.1729494 L163.225401,28.1729494 C172.224249,28.1729494 177.103191,23.8657743 177.103191,14.2871907 L177.103191,0.405416342 L163.225401,0.405416342" fill="#1F9BA0"></path>
		<path d="M163.225401,151.671533 C154.180732,151.671533 150.075767,156.076327 149.44523,163.446537 L149.347611,163.446537 C149.367533,163.753339 149.377494,164.062132 149.382475,164.372918 C149.364545,164.760405 149.347611,165.147891 149.347611,165.550319 L149.347611,166.553401 C148.675237,178.440965 138.965167,187.900016 126.950101,188.147051 C114.936031,187.900016 105.224965,178.440965 104.553588,166.552405 L104.553588,165.550319 C104.553588,165.261447 104.536654,164.987518 104.527689,164.707611 C104.54263,164.285261 104.565541,163.863907 104.593432,163.446537 L104.455969,163.446537 C103.825432,156.076327 99.7204669,151.671533 90.6757977,151.671533 L76.7970117,151.671533 L76.7970117,165.550319 C76.7970117,175.132887 81.6769494,179.436078 90.6757977,179.436078 L93.0495253,179.436078 C103.409058,180.600529 111.316171,188.693914 112.809339,198.941883 C112.933852,199.968872 112.792405,200.552591 112.792405,201.425183 L112.792405,222.898304 C112.792405,228.049183 116.992,232.272685 122.150848,232.272685 L130.909634,232.272685 C136.028638,232.272685 140.268078,228.049183 140.268078,222.898304 L140.268078,201.872436 C140.417494,190.246848 149.509977,180.711097 160.851673,179.436078 L163.225401,179.436078 C172.224249,179.436078 177.103191,175.132887 177.103191,165.550319 L177.103191,151.671533 L163.225401,151.671533" fill="#1F9BA0"></path>
	</g>
</svg>
